img/faq_arrow.svg

<svg width="16" height="17" viewBox="0 0 16 17" fill="none" xmlns="http://www.w3.org/2000/svg">
<path d="M2.97994 5.81295C3.15745 5.63544 3.43523 5.6193 3.63097 5.76454L3.68705 5.81295L8.00016 10.1258L12.3133 5.81295C12.4908 5.63544 12.7686 5.6193 12.9643 5.76454L13.0204 5.81295C13.1979 5.99046 13.214 6.26824 13.0688 6.46398L13.0204 6.52006L8.35372 11.1867C8.17621 11.3642 7.89843 11.3804 7.70269 11.2351L7.64661 11.1867L2.97994 6.52006C2.78468 6.3248 2.78468 6.00821 2.97994 5.81295Z" fill="#222222" stroke="#222222" stroke-width="0.3"/>
</svg>

<svg width="16" height="17" viewBox="0 0 16 17" fill="none" xmlns="http://www.w3.org/2000/svg"><path d="M2.98 5.813a.5.5 0 0 1 .651-.048l.056.048L8 10.126l4.313-4.313a.5.5 0 0 1 .651-.048l.056.048a.5.5 0 0 1 .049.651l-.049.056-4.666 4.667a.5.5 0 0 1-.651.048l-.056-.048L2.98 6.52a.5.5 0 0 1 0-.707z" fill="#222" stroke="#222" stroke-width=".3"/></svg>
